src/Icon/svgs/CheckCircle.svg

<svg width="24" height="24" viewBox="0 0 24 24" fill="none" xmlns="http://www.w3.org/2000/svg">
<path fill-rule="evenodd" clip-rule="evenodd" d="M12 1C18.072 1 23 5.928 23 12C23 18.072 18.072 23 12 23C5.928 23 1 18.072 1 12C1 5.928 5.928 1 12 1ZM17.8335 9.29484L10.3335 16.7948L6.1665 12.6278L7.3415 11.4528L10.3335 14.4368L16.6585 8.11084L17.8335 9.29484Z" fill="#1B1C1D"/>
</svg>

<svg xmlns="http://www.w3.org/2000/svg" width="24" height="24" fill="none"><path fill-rule="evenodd" d="M12 1c6.072 0 11 4.928 11 11s-4.928 11-11 11S1 18.072 1 12 5.928 1 12 1zm5.834 8.295l-7.5 7.5-4.167-4.167 1.175-1.175 2.992 2.984 6.325-6.326 1.175 1.184z" fill="#1B1C1D"/></svg>
